X:1
T:Title
%%score ( 1 2 ) { 3 | 4 }
L:1/8
Q:1/4=108
M:4/4
K:G
V:1 treble nm="Grand Piano, Soprano"
V:2 treble 
V:3 bass nm="Choir Pad, Crown Him Conqueror, 1909"
V:4 bass 
V:1
 [DB]2 [DB]2 [DA]2 [DA]2 | [DG]3 [DA] [DB]2 [Dc]2 | [Gd]2 [Bd]2 [_Be]2 [B^c]2 | [Bd]6 [GB]2 | %4
w: By~Isaac~Hickman~Meredith * * *||||
 [Ac]2 [Fd]2 [GB]2 [DG]2 | [DA]2 [FB]2 [EG]2 [EB]2 | [^DA]3 [EG] [=DF]2 [^CE]2 | D6 D2 | %8
w: ||||
 c2 c2 B2 B2 | A3 F E2 E2 | c2 c2 B2 d2 | c6 z2 | [DB]4 [DG]2 G/A/B/c/ | %13
w: |||||
 [Gd]>[Ge] [Gd]>[Gc] [GB]2 [Gc]2 | [GB]2 [DG]2 [FA]2 [DF]2 | [DG]6 z2 | z4 c4 | d4 B4 | %18
w: |||||
 [Dc]2 [Fc]2 [Gc]2 [Ac]2 | [GB]6 z2 | B4 z4 | z4 B4 | z4 d2 z2 | [Fd]6 z2 | [Fc]2 F2 [FB]2 [FA]2 | %25
w: |||||||
 [DA]3 [DG] [DG]2 D2 | [CE]2 [^DF]2 [EG]2 [EA]2 | [^DB]6 z2 | [DB]4 [DG]2 G/A/B/c/ | %29
w: ||||
 [Gd]>[Ge] [Gd]>[Gc] [GB]2 [Gc]2 | [GB]2 [DG]2 [FA]2 [DF]2 | [DG]8 |] %32
w: |||
V:2
 x8 | x8 | x8 | x8 | x8 | x8 | x8 | x8 | x8 | x8 | x8 | z2 [CE]2 [CD]2 z2 | x8 | x8 | x8 | x8 | %16
 [Ge]4 G2 E2 | G2 F2 G2 D2 | x8 | x8 | ^D2 E2 F2 D2 | [EG]4 E2 G2 | [FA]2 [Fd]2 EF [G^c]2 | x8 | %24
 x8 | x8 | x8 | x8 | x8 | x8 | x8 | x8 |] %32
V:3
 G,2 G,2 F,2 F,2 | G,3 F, G,2 A,2 | B,2[K:treble] D2 ^C2 E2 | D6 D2 | D2 D2 D2[K:bass] G,2 | %5
 F,2 B,2 B,2 B,2 | B,3 B, A,2 G,2 | F,6 z2 | A,,2 C2 G,,2 B,2 | D,,2 C2 C2 z2 | A,,2 C2 G,,2 B,2 | %11
 D,,2 G,2 F,2 z2 | G,4 B,2 z2 | B,>C B,>E D2 E2 | D2 B,2 C2 C2 | B,6 z2 | C4 C4 | %17
 B,2 C2 D2[K:bass] B,2 | A,2 A,2 A,2 D2 | D6 z2 | B,4 B,4 | B,4 B,4 | z4 A,2 A,2 | A,6 z2 | %24
 A,2 A,2 D2 C2 | C3[K:bass] B, B,2 G,2 | G,2 B,2 B,2 CE, | F,6 z2 | G,4 B,2 z2 | B,>C B,>E D2 E2 | %30
 D2 B,2 C2 C2 | B,8 |] %32
V:4
 G,,2 B,,2 D,2 C,2 | B,,3 D, z2 G,2 | G,2 G,2 G,2 G,2 | G,6 G,2 | F,2 D,2 G,2 B,,2 | %5
 D,2 ^D,2 E,2 G,2 | F,3 G, z2 A,,2 | D,6 z2 | z2 [D,F,]2 z2 [D,G,]2 | z2 [D,F,]2 [D,F,]2 z2 | %10
 z2 [D,F,]2 z2 [D,G,]2 | z8 | z4 G,2 z2 | G,>G, G,>G, G,2 C,2 | D,2 D,2 D,2 D,2 | G,6 z2 | %16
 C,2 D,2 E,2 C,2 | G,2 A,2 B,2 G,2 | F,2 D,2 E,2 F,2 | G,6 z2 | B,,2 ^C,2 ^D,2 B,,2 | %21
 E,2 F,2 G,2 E,2 | A,2 A,2 A,,2 A,,2 | D,6 z2 | D,2 D,2 D,2 D,2 | G,3 G, G,2 B,,2 | %26
 C,2 B,,2 E,2 C,2 | B,,6 z2 | z4 G,2 z2 | G,>G, G,>G, G,2 C,2 | D,2 D,2 D,2 D,2 | G,8 |] %32

